X:448
T:April's Fool
T:April Fool
R:jig
C:Jimmy Keane
Z:hn-jig-448
M:6/8
L:1/8
K:G
GAB GAB | ~E3 EDE | GAB dBd | edB dBA |
GAB GAB | ~E3 EDE | BeB dBA |1 BGF G2D :|2 BGF G2A ||
|: Bdd dBd | egg gab | age dBG | ~B3 AGA |
[1 Bdd dBd | egg gab | age dBA | BGF G2A :|
[2 GAB GAB | ~E3 EDE | BeB dBA | BGF G2D ||

